X: 1
T: the Gordons Strathspey
R: strathspey
Z: 1998 by John Chambers <jc:trillian.mit.edu>
B: Skye
B: Paddledoo
M: C
L: 1/8
K: ADor
| "Am"A2 B<d "Em"e2 d<B | "Am"BA ~A2 "D7"B<A A<c \
| "G"B<d d>B "C"cB AG | "C"E2 G>A "G"GD DE |
| "G"D>E GA "Em"B2 g>f | "C"e>d g>f "G"e>d B<d \
| "C"e>f g>f "G/B"e<d c<B | "Am"~A2 "Em"e>d "Am"B<A A2 |]
[| "Am"A<a a<b "Bm"a2 g>f | "C"e>d e<g "D"a>e ef \
| "G"g>a b>a "C"g/a/g/f/ g<e | "D"d>e d>c "G"B<G G>B |
| "Am"A<a a<b "Bm"a2 g>f | "C"e>d B>d e>f g>a \
| "G"b<g "Am"a<e "C"g<e "G"d>B | "Am"A<a "Em"e>d "Am"B<A A2 |]

